X:8
T:De Snijdersbank
C:Traditional
D:'t Kliekske, Volksmuziek & dialectzang uit Vlaanderen
Z:Bert Van Vreckem, 2004-05-10 <http://flanders.blackmill.net/music/>
M:4/4
L:1/4
K:C
C>C CE|GG G2|G>A GF|ED C2|
w:1.~Es dadd' ie gi\"en snaa-ders-bank Ja, dadd' es een snaa-ders-bank!
C>C CE|GG/G/ G2|G>A GF|ED/D/ C||
w:Es dadd' ie gi\"en ket en ne lank Ja, dadd' es een ket en ne lank!
||:G/G/|GG/G/ GG/G/|GG G :||
